public/resource/img/game/feedback/meh.svg

<svg xmlns="http://www.w3.org/2000/svg" xmlns:xlink="http://www.w3.org/1999/xlink" viewBox="0 0 32 32" stroke="none" stroke-width="0"><path d="M16,0 C7.15428571,0 0,7.15428571 0,16 C0,24.8457143 7.15428571,32 16,32 C24.8457143,32 32,24.8457143 32,16 C32,7.15428571 24.8457143,0 16,0 Z M10.1714286,9.46285714 C11.36,9.46285714 12.3428571,10.4457143 12.3428571,11.6342857 C12.3428571,12.8228571 11.36,13.8057143 10.1714286,13.8057143 C8.98285714,13.8057143 8,12.8457143 8,11.6342857 C8,10.4228571 8.98285714,9.46285714 10.1714286,9.46285714 Z M24,21.8285714 L8,21.8285714 L8,18.1714286 L24,18.1714286 L24,21.8285714 Z M21.8285714,13.8285714 C20.64,13.8285714 19.6571429,12.8457143 19.6571429,11.6571429 C19.6571429,10.4685714 20.64,9.48571429 21.8285714,9.48571429 C23.0171429,9.48571429 24,10.4685714 24,11.6571429 C24,12.8457143 23.0171429,13.8285714 21.8285714,13.8285714 Z" style="fill: rgb(255, 166, 2);"></path></svg>

<svg xmlns="http://www.w3.org/2000/svg" stroke-width="0" viewBox="0 0 32 32"><path fill="#ffa602" d="M16 0C7.154 0 0 7.154 0 16s7.154 16 16 16 16-7.154 16-16S24.846 0 16 0zm-5.829 9.463c1.189 0 2.172.983 2.172 2.171a2.185 2.185 0 0 1-2.172 2.172 2.17 2.17 0 1 1 0-4.343zM24 21.829H8V18.17h16v3.658zm-2.171-8a2.185 2.185 0 0 1-2.172-2.172c0-1.188.983-2.171 2.172-2.171 1.188 0 2.171.983 2.171 2.171a2.185 2.185 0 0 1-2.171 2.172z"/></svg>
